X:654
T: IM HIMMEL IM HIMMEL SIND FREUDEN
N: E2034A
O: Europa, Mitteleuropa, Deutschland, Brandenburg, Oranienburg
R: geistlich, Wallfahrts - Lied
M: 3/4
L: 1/8
K: F
C2 | F2E2F2 | G2F2A2 | B2B2A2 | G4
FA | c2c2d2 | c2c2B2 | A2A2G2 | F4
FA | c2c2d2 | c2c2B2 | A2A2G2 | F4

@@@ Tune index: 5338
